X: 42520
T: Wheels Of The World, The
R: reel
M: 4/4
K: Dmixolydian
|:gf|eAAB cBcA|GEEF G2 EG|AGAB cBcd|efge dfgf|
eAAB cBcA|GEEF G2 EG|AGAB cBcd|efge d2 Bc||
|:dg g2 dg g2|ea a2 ea a2|effe defg|afge dcBc|
dg g2 dg g2|ea a2 ea a2|effe defg|afge d2:|

